app/images/vac-message.svg

<svg width="28" height="28" viewBox="0 0 28 28" fill="none" xmlns="http://www.w3.org/2000/svg">
<path fill-rule="evenodd" clip-rule="evenodd" d="M23.1756 5.13873H4.08983C3.72827 5.13873 3.38152 5.28236 3.12586 5.53803C2.87019 5.79369 2.72656 6.14044 2.72656 6.502V21.498C2.72656 21.8595 2.87019 22.2063 3.12586 22.462C3.38152 22.7176 3.72827 22.8613 4.08983 22.8613H23.1756C23.5372 22.8613 23.8839 22.7176 24.1396 22.462C24.3953 22.2063 24.5389 21.8595 24.5389 21.498V6.502C24.5389 6.14044 24.3953 5.79369 24.1396 5.53803C23.8839 5.28236 23.5372 5.13873 23.1756 5.13873ZM5.4531 20.1347V7.86527H21.8124V20.1347H5.4531Z" fill="white"/>
<path fill-rule="evenodd" clip-rule="evenodd" d="M24.0588 7.53945L14.4546 15.7191C14.2069 15.9299 13.892 16.0452 13.5668 16.0442C13.2415 16.0432 12.9273 15.926 12.681 15.7136L3.1994 7.534C2.24239 6.70922 2.82587 5.13873 4.08962 5.13873H23.1754C24.4433 5.13873 25.024 6.7174 24.0588 7.53945ZM7.75682 7.86527L13.578 12.8862L19.47 7.86527H7.75682Z" fill="white"/>
</svg>

<svg xmlns="http://www.w3.org/2000/svg" width="28" height="28" fill="none"><path fill="#fff" fill-rule="evenodd" d="M23.176 5.139H4.09a1.363 1.363 0 0 0-1.363 1.363v14.996a1.363 1.363 0 0 0 1.363 1.363h19.086a1.364 1.364 0 0 0 1.363-1.363V6.502a1.363 1.363 0 0 0-1.363-1.363ZM5.453 20.135V7.865h16.36v12.27H5.452Z" clip-rule="evenodd"/><path fill="#fff" fill-rule="evenodd" d="m24.059 7.54-9.604 8.18a1.363 1.363 0 0 1-1.774-.006l-9.482-8.18c-.957-.825-.373-2.395.89-2.395h19.086c1.268 0 1.849 1.578.884 2.4Zm-16.302.325 5.821 5.021 5.892-5.02H7.757Z" clip-rule="evenodd"/></svg>
